app/dist/common/images/beijing-sifang-automation-coltd.svg

<svg height="18" viewBox="0 0 18 18" width="18" xmlns="http://www.w3.org/2000/svg"><path d="m0 0h18v18h-18z" fill="#f0f3fa"/><path d="m9 4 2.5 2.5h-5zm-1.47 2h2.94l-1.47-1.38zm1.47 8 2.5-2.5h-5zm-1.47-2h2.94l-1.47 1.38zm6.47-3-2.5 2.5v-5zm-2-1.47v2.94l1.38-1.47zm-8 1.47 2.5 2.5v-5zm2-1.47v2.94l-1.38-1.47z" fill="#162d5f"/></svg>

<!-- by TradingView --><svg width="18" height="18" viewBox="0 0 18 18" xmlns="http://www.w3.org/2000/svg"><path fill="#F0F3FA" d="M0 0h18v18H0z"/><path d="m9 4 2.5 2.5h-5L9 4ZM7.53 6h2.94L9 4.62 7.53 6ZM9 14l2.5-2.5h-5L9 14Zm-1.47-2h2.94L9 13.38 7.53 12ZM14 9l-2.5 2.5v-5L14 9Zm-2-1.47v2.94L13.38 9 12 7.53ZM4 9l2.5 2.5v-5L4 9Zm2-1.47v2.94L4.62 9 6 7.53Z" fill="#162D5F"/></svg>
